assets/icons/badgedark.svg

<svg width="36" height="36" viewBox="0 0 36 36" fill="none" xmlns="http://www.w3.org/2000/svg">
<g filter="url(#filter0_d_4607_30095)">
<rect x="4" y="4" width="28" height="28" rx="14" fill="#FF815C"/>
<path d="M17.5516 9.90849C17.735 9.53687 18.265 9.53687 18.4484 9.90849L20.5287 14.1237C20.6015 14.2713 20.7423 14.3736 20.9052 14.3972L25.5569 15.0732C25.967 15.1328 26.1308 15.6367 25.834 15.926L22.468 19.2071C22.3501 19.322 22.2964 19.4875 22.3242 19.6497L23.1188 24.2826C23.1889 24.6911 22.7601 25.0026 22.3933 24.8097L18.2327 22.6223C18.087 22.5457 17.913 22.5457 17.7673 22.6223L13.6067 24.8097C13.2399 25.0026 12.8111 24.6911 12.8812 24.2826L13.6758 19.6497C13.7036 19.4875 13.6499 19.322 13.532 19.2071L10.166 15.926C9.86921 15.6367 10.033 15.1328 10.4431 15.0732L15.0948 14.3972C15.2577 14.3736 15.3985 14.2713 15.4713 14.1237L17.5516 9.90849Z" fill="#1A1D21"/>
</g>
<defs>
<filter id="filter0_d_4607_30095" x="0" y="0" width="36" height="36" filterUnits="userSpaceOnUse" color-interpolation-filters="sRGB">
<feFlood flood-opacity="0" result="BackgroundImageFix"/>
<feColorMatrix in="SourceAlpha" type="matrix" values="0 0 0 0 0 0 0 0 0 0 0 0 0 0 0 0 0 0 127 0" result="hardAlpha"/>
<feMorphology radius="4" operator="dilate" in="SourceAlpha" result="effect1_dropShadow_4607_30095"/>
<feOffset/>
<feComposite in2="hardAlpha" operator="out"/>
<feColorMatrix type="matrix" values="0 0 0 0 0.101961 0 0 0 0 0.113725 0 0 0 0 0.129412 0 0 0 1 0"/>
<feBlend mode="normal" in2="BackgroundImageFix" result="effect1_dropShadow_4607_30095"/>
<feBlend mode="normal" in="SourceGraphic" in2="effect1_dropShadow_4607_30095" result="shape"/>
</filter>
</defs>
</svg>

<svg width="36" height="36" viewBox="0 0 36 36" fill="none" xmlns="http://www.w3.org/2000/svg"><g filter="url(#filter0_d_4607_30095)"><rect x="4" y="4" width="28" height="28" rx="14" fill="#FF815C"/><path d="M17.55 9.9a.5.5 0 0 1 .9 0l2.08 4.22a.5.5 0 0 0 .38.28l4.65.67a.5.5 0 0 1 .27.86l-3.36 3.28a.5.5 0 0 0-.15.44l.8 4.63a.5.5 0 0 1-.73.53l-4.16-2.19a.5.5 0 0 0-.46 0l-4.16 2.19a.5.5 0 0 1-.73-.53l.8-4.63a.5.5 0 0 0-.15-.44l-3.36-3.28a.5.5 0 0 1 .27-.86l4.65-.67a.5.5 0 0 0 .38-.28z" fill="#1A1D21"/></g><defs><filter id="filter0_d_4607_30095" x="0" y="0" width="36" height="36" filterUnits="userSpaceOnUse" color-interpolation-filters="sRGB"><feFlood flood-opacity="0" result="BackgroundImageFix"/><feColorMatrix in="SourceAlpha" type="matrix" values="0 0 0 0 0 0 0 0 0 0 0 0 0 0 0 0 0 0 127 0" result="hardAlpha"/><feMorphology radius="4" operator="dilate" in="SourceAlpha" result="effect1_dropShadow_4607_30095"/><feOffset/><feComposite in2="hardAlpha" operator="out"/><feColorMatrix type="matrix" values="0 0 0 0 0.101961 0 0 0 0 0.113725 0 0 0 0 0.129412 0 0 0 1 0"/><feBlend mode="normal" in2="BackgroundImageFix" result="effect1_dropShadow_4607_30095"/><feBlend mode="normal" in="SourceGraphic" in2="effect1_dropShadow_4607_30095" result="shape"/></filter></defs></svg>
